dist/svgs/crypto-icons/icons/hmq.svg

<?xml version="1.0" encoding="UTF-8" standalone="yes"?>
<svg xmlns="http://www.w3.org/2000/svg" xmlns:xlink="http://www.w3.org/1999/xlink" width="440px" height="510.66666666666663px" viewBox="0 0 330 383" version="1.1">
  <g id="surface1">
    <path style=" stroke:none;fill-rule:evenodd;fill:rgb(0%,0%,0%);fill-opacity:1;" d="M 282.914062 130.058594 C 275.464844 122.613281 267.21875 115.699219 258.175781 109.316406 C 249.394531 103.199219 240.019531 98.011719 230.042969 93.753906 C 220.066406 89.5 209.625 86.175781 198.71875 83.78125 C 187.8125 81.652344 176.503906 80.589844 164.800781 80.589844 C 153.09375 80.589844 141.789062 81.652344 130.882812 83.78125 C 119.976562 86.175781 109.535156 89.5 99.558594 93.753906 C 89.582031 98.011719 80.207031 103.199219 71.425781 109.316406 C 62.382812 115.699219 54.136719 122.613281 46.6875 130.058594 L 46.6875 0 L 0 0 L 0 383 L 47.484375 383 L 47.484375 245.757812 C 47.21875 229.535156 50.144531 214.242188 56.261719 199.878906 C 62.382812 185.515625 70.761719 173.015625 81.402344 162.375 C 92.042969 151.738281 104.546875 143.226562 118.910156 136.84375 C 133.277344 130.726562 148.574219 127.667969 164.800781 127.667969 C 181.027344 127.667969 196.324219 130.726562 210.6875 136.84375 C 225.054688 143.226562 237.558594 151.738281 248.199219 162.375 C 258.839844 173.015625 267.351562 185.515625 273.738281 199.878906 C 279.855469 214.242188 282.914062 229.535156 282.914062 245.757812 L 282.914062 383 L 330 383 L 330 245.757812 C 330 234.585938 328.804688 223.683594 326.410156 213.042969 C 324.28125 202.40625 321.15625 192.230469 317.03125 182.523438 C 312.910156 172.816406 308.054688 163.574219 302.464844 154.796875 C 296.613281 146.019531 290.097656 137.773438 282.914062 130.058594 Z M 282.914062 130.058594 "/>
  </g>
</svg>

<svg xmlns="http://www.w3.org/2000/svg" viewBox="0 0 330 383"><path fill-rule="evenodd" d="M282.914 130.059c-7.45-7.446-15.695-14.36-24.738-20.743a156.626 156.626 0 00-28.133-15.562c-9.977-4.254-20.418-7.578-31.324-9.973-10.906-2.129-22.215-3.191-33.918-3.191-11.707 0-23.012 1.062-33.918 3.191-10.906 2.395-21.348 5.719-31.324 9.973a156.626 156.626 0 00-28.133 15.562c-9.043 6.383-17.29 13.297-24.739 20.743V0H0v383h47.484V245.758c-.265-16.223 2.66-31.516 8.778-45.88 6.12-14.362 14.5-26.862 25.14-37.503 10.641-10.637 23.145-19.148 37.508-25.531 14.367-6.117 29.664-9.176 45.89-9.176 16.227 0 31.524 3.059 45.887 9.176 14.368 6.383 26.872 14.894 37.512 25.531 10.64 10.64 19.153 23.14 25.54 37.504 6.116 14.363 9.175 29.656 9.175 45.879V383H330V245.758c0-11.172-1.195-22.074-3.59-32.715-2.129-10.637-5.254-20.813-9.379-30.52a189.043 189.043 0 00-14.566-27.726 194.822 194.822 0 00-19.55-24.738zm0 0"/></svg>
